app/src/main/res/drawable/svgs/logo_bbc_radio_3.svg

<?xml version="1.0" encoding="UTF-8" standalone="no"?>
<!-- Created with Inkscape (http://www.inkscape.org/) -->

<svg
   width="109.93649"
   height="109.99474"
   id="svg2"
   sodipodi:version="0.32"
   inkscape:version="1.4.3 (0d15f75042, 2025-12-25)"
   version="1.0"
   inkscape:output_extension="org.inkscape.output.svg.inkscape"
   sodipodi:docname="logo_bbc_radio_3.svg"
   xmlns:inkscape="http://www.inkscape.org/namespaces/inkscape"
   xmlns:sodipodi="http://sodipodi.sourceforge.net/DTD/sodipodi-0.dtd"
   xmlns="http://www.w3.org/2000/svg"
   xmlns:svg="http://www.w3.org/2000/svg">
  <defs
     id="defs1" />
  <sodipodi:namedview
     id="namedview1"
     pagecolor="#ffffff"
     bordercolor="#000000"
     borderopacity="0.25"
     inkscape:showpageshadow="2"
     inkscape:pageopacity="0.0"
     inkscape:pagecheckerboard="0"
     inkscape:deskcolor="#d1d1d1"
     inkscape:zoom="2.8413614"
     inkscape:cx="-15.133591"
     inkscape:cy="76.899757"
     inkscape:window-width="1920"
     inkscape:window-height="1131"
     inkscape:window-x="0"
     inkscape:window-y="0"
     inkscape:window-maximized="1"
     inkscape:current-layer="g4146" />
  <g
     inkscape:label="Layer 1"
     inkscape:groupmode="layer"
     id="layer1"
     transform="translate(-162.2085,-747.56731)">
    <g
       id="g4146"
       clip-path="url(#id287)"
       transform="matrix(5.2950817,0,0,-5.2950817,-777.63091,3850.5895)">
      <circle
         style="fill:#ffffff;stroke-width:1.88855;stroke-linecap:round"
         id="path1"
         cx="187.89485"
         cy="-575.55127"
         r="8.5409069"
         transform="scale(1,-1)" />
      <g
         id="g4188"
         transform="translate(192.9109,580.5277)">
        <path
           id="path4190"
           d="M 0,0 C -0.889,0 -0.891,1.359 0,1.359 0.872,1.359 0.87,0 0,0 m 0,-2.302 c -0.889,0 -0.891,1.36 0,1.36 0.872,0 0.87,-1.36 0,-1.36 m -1.115,-8.949 c -1.908,-1.472 -5.595,-1.759 -7.57,-0.321 -0.828,0.603 -1.534,1.316 -1.509,2.295 0.071,2.606 4.432,1.499 3.384,-0.459 -0.43,-0.687 -1.469,-0.685 -2.145,-0.429 1.17,-1.701 4.337,-1.659 5.674,-0.169 0.671,0.748 0.75,1.742 0.667,2.72 -0.1,1.174 -0.666,1.912 -1.379,2.77 0.44,0.315 0.7,0.49 1.121,0.831 3.086,-0.747 4.79,-4.9 1.757,-7.238 M -7.296,2.038 c 2.05,1.161 5.9,0.396 6.038,-2.408 0.121,-2.469 -2.929,-4.135 -4.764,-5.141 -0.05,0.05 -0.404,0.401 -0.479,0.475 1.646,1.244 3.486,3.465 2.673,5.671 -0.561,1.519 -3.08,1.488 -3.74,0.069 0.63,0.219 1.528,0.252 2.012,-0.294 0.507,-0.573 0.208,-1.467 -0.424,-1.793 -0.987,-0.508 -2.722,-0.074 -2.803,1.211 -0.026,0.969 0.65,1.793 1.487,2.21 m 2.259,3.454 c -5.733,0 -10.381,-4.65 -10.381,-10.386 0,-5.737 4.648,-10.387 10.381,-10.387 5.734,0 10.381,4.65 10.381,10.387 0,5.736 -4.647,10.386 -10.381,10.386"
           style="fill:#e82c2e;fill-rule:nonzero;stroke:none" />
      </g>
    </g>
  </g>
</svg>

<?xml version="1.0" encoding="UTF-8" standalone="no"?>
<!-- Created with Inkscape (http://www.inkscape.org/) -->
<svg
   xmlns:dc="http://purl.org/dc/elements/1.1/"
   xmlns:cc="http://web.resource.org/cc/"
   xmlns:rdf="http://www.w3.org/1999/02/22-rdf-syntax-ns#"
   xmlns:svg="http://www.w3.org/2000/svg"
   xmlns="http://www.w3.org/2000/svg"
   xmlns:sodipodi="http://sodipodi.sourceforge.net/DTD/sodipodi-0.dtd"
   xmlns:inkscape="http://www.inkscape.org/namespaces/inkscape"
   width="200"
   height="110"
   id="svg2"
   sodipodi:version="0.32"
   inkscape:version="0.45.1"
   version="1.0"
   inkscape:output_extension="org.inkscape.output.svg.inkscape">
  <g
     inkscape:label="Layer 1"
     inkscape:groupmode="layer"
     id="layer1"
     transform="translate(-72.144982,-747.56731)">
    <g
       id="g4146"
       clip-path="url(#id287)"
       transform="matrix(5.2950817,0,0,-5.2950817,-777.63091,3850.5895)">
      <path
         id="path4148"
         d="M 170.187,585.38 L 174.398,585.38 L 174.398,581.417 L 170.187,581.417 L 170.187,585.38 z M 172.84,584.828 C 172.822,584.832 172.802,584.834 172.784,584.838 L 172.761,584.841 C 172.729,584.845 172.697,584.849 172.663,584.852 C 172.641,584.855 172.618,584.856 172.596,584.857 C 172.555,584.86 172.517,584.861 172.479,584.861 C 172.462,584.861 172.451,584.86 172.434,584.86 C 172.402,584.86 172.371,584.857 172.341,584.856 C 172.324,584.855 172.307,584.854 172.29,584.852 C 172.264,584.85 172.24,584.848 172.215,584.844 L 172.195,584.842 L 172.171,584.838 L 172.144,584.833 C 172.132,584.832 172.12,584.829 172.109,584.827 C 172.091,584.825 172.075,584.821 172.059,584.817 C 171.959,584.796 171.866,584.768 171.782,584.735 C 171.738,584.718 171.695,584.699 171.656,584.68 C 171.621,584.663 171.59,584.646 171.558,584.628 C 171.529,584.611 171.5,584.593 171.472,584.575 C 171.456,584.564 171.44,584.554 171.424,584.542 C 171.412,584.533 171.399,584.524 171.386,584.514 C 171.36,584.494 171.334,584.472 171.309,584.451 C 171.287,584.431 171.265,584.411 171.245,584.391 C 171.227,584.374 171.209,584.356 171.193,584.336 C 171.175,584.317 171.159,584.298 171.143,584.278 C 171.124,584.257 171.109,584.235 171.093,584.212 C 171.079,584.195 171.068,584.178 171.056,584.16 C 171.048,584.148 171.041,584.136 171.034,584.124 C 170.989,584.053 170.952,583.976 170.919,583.894 C 170.88,583.792 170.852,583.681 170.836,583.565 C 170.832,583.528 170.828,583.491 170.825,583.452 C 170.823,583.422 170.822,583.392 170.822,583.363 C 170.822,583.34 170.822,583.318 170.823,583.296 C 170.825,583.273 170.828,583.25 170.83,583.228 L 170.832,583.212 C 170.835,583.185 170.84,583.158 170.844,583.133 C 170.847,583.122 170.849,583.113 170.851,583.102 C 170.855,583.081 170.861,583.059 170.865,583.038 C 170.873,583.011 170.881,582.984 170.89,582.958 C 170.901,582.925 170.913,582.894 170.925,582.864 C 170.945,582.815 170.968,582.769 170.991,582.725 C 171.006,582.699 171.02,582.674 171.035,582.649 C 171.047,582.631 171.059,582.612 171.071,582.594 C 171.088,582.57 171.105,582.547 171.122,582.526 C 171.139,582.503 171.159,582.482 171.177,582.46 C 171.199,582.435 171.221,582.411 171.243,582.389 L 171.254,582.378 C 171.273,582.361 171.292,582.341 171.315,582.322 C 171.33,582.31 171.346,582.295 171.364,582.282 C 171.379,582.269 171.397,582.256 171.414,582.244 C 171.436,582.228 171.457,582.213 171.481,582.197 C 171.508,582.183 171.534,582.166 171.561,582.15 C 171.617,582.119 171.678,582.088 171.746,582.061 C 171.771,582.051 171.798,582.042 171.825,582.033 C 171.851,582.023 171.879,582.015 171.907,582.006 C 171.956,581.993 172.007,581.981 172.06,581.97 C 172.103,581.961 172.149,581.955 172.195,581.95 C 172.24,581.944 172.288,581.939 172.337,581.937 C 172.362,581.935 172.386,581.935 172.41,581.933 L 172.445,581.933 C 172.533,581.933 172.615,581.937 172.691,581.944 L 172.706,581.945 C 172.736,581.947 172.765,581.951 172.793,581.955 C 172.837,581.959 172.878,581.965 172.917,581.973 C 172.942,581.977 172.966,581.983 172.989,581.987 C 173.026,581.995 173.061,582.004 173.093,582.012 C 173.118,582.018 173.141,582.025 173.164,582.032 C 173.191,582.04 173.216,582.049 173.242,582.058 L 173.266,582.065 C 173.278,582.07 173.294,582.076 173.313,582.083 C 173.338,582.093 173.369,582.105 173.403,582.12 C 173.425,582.129 173.447,582.139 173.471,582.15 C 173.49,582.159 173.512,582.17 173.535,582.18 C 173.543,582.185 173.553,582.19 173.563,582.193 L 173.563,582.735 C 173.556,582.73 173.549,582.726 173.543,582.722 L 173.506,582.7 C 173.469,582.678 173.433,582.657 173.398,582.637 C 173.359,582.616 173.319,582.596 173.281,582.578 C 173.215,582.546 173.15,582.52 173.089,582.498 C 172.971,582.456 172.863,582.43 172.768,582.412 C 172.756,582.41 172.745,582.408 172.734,582.406 C 172.707,582.403 172.682,582.399 172.658,582.397 C 172.621,582.393 172.585,582.391 172.555,582.389 C 172.533,582.388 172.515,582.387 172.497,582.387 C 172.459,582.387 172.419,582.388 172.378,582.391 C 172.331,582.395 172.285,582.4 172.235,582.408 C 172.157,582.421 172.079,582.441 172.003,582.469 C 171.991,582.473 171.98,582.477 171.968,582.482 C 171.961,582.485 171.954,582.488 171.946,582.491 C 171.934,582.497 171.921,582.502 171.909,582.507 C 171.882,582.52 171.856,582.533 171.83,582.548 C 171.818,582.555 171.806,582.563 171.792,582.57 C 171.78,582.579 171.767,582.587 171.754,582.597 C 171.739,582.607 171.723,582.618 171.708,582.63 C 171.693,582.642 171.678,582.655 171.665,582.665 L 171.647,582.681 L 171.639,582.689 L 171.633,582.694 L 171.626,582.7 C 171.602,582.725 171.58,582.749 171.559,582.774 C 171.549,582.787 171.538,582.801 171.527,582.815 C 171.517,582.828 171.509,582.841 171.5,582.855 C 171.491,582.868 171.483,582.88 171.476,582.893 C 171.465,582.912 171.455,582.931 171.444,582.95 C 171.438,582.966 171.43,582.983 171.424,582.998 C 171.412,583.025 171.402,583.053 171.394,583.079 C 171.387,583.099 171.382,583.12 171.376,583.139 C 171.363,583.195 171.356,583.247 171.351,583.291 C 171.349,583.308 171.349,583.324 171.347,583.338 C 171.346,583.359 171.346,583.378 171.346,583.393 L 171.346,583.427 C 171.347,583.458 171.351,583.497 171.357,583.542 C 171.361,583.569 171.366,583.598 171.374,583.628 C 171.378,583.649 171.384,583.669 171.39,583.69 C 171.397,583.709 171.403,583.728 171.412,583.749 C 171.416,583.763 171.421,583.776 171.428,583.789 C 171.436,583.807 171.444,583.825 171.454,583.843 C 171.461,583.858 171.469,583.872 171.477,583.886 C 171.495,583.916 171.515,583.947 171.538,583.977 C 171.546,583.989 171.554,583.999 171.563,584.01 C 171.575,584.024 171.587,584.038 171.599,584.052 C 171.606,584.058 171.613,584.065 171.619,584.072 C 171.718,584.171 171.83,584.246 171.944,584.297 C 171.963,584.306 171.981,584.313 171.999,584.32 C 172.018,584.328 172.035,584.334 172.054,584.341 C 172.073,584.347 172.094,584.353 172.114,584.359 C 172.133,584.365 172.153,584.369 172.171,584.374 C 172.191,584.378 172.21,584.382 172.228,584.385 C 172.249,584.389 172.27,584.392 172.291,584.395 C 172.312,584.398 172.332,584.4 172.353,584.401 C 172.393,584.405 172.431,584.407 172.468,584.407 C 172.482,584.407 172.494,584.407 172.507,584.406 C 172.535,584.406 172.561,584.405 172.588,584.404 C 172.607,584.401 172.625,584.401 172.643,584.399 C 172.676,584.395 172.71,584.392 172.741,584.387 C 172.768,584.383 172.796,584.378 172.821,584.374 C 172.859,584.365 172.894,584.357 172.927,584.348 C 172.947,584.344 172.966,584.338 172.983,584.332 C 173.009,584.324 173.032,584.317 173.049,584.312 C 173.079,584.301 173.096,584.295 173.096,584.295 C 173.122,584.286 173.149,584.274 173.174,584.265 C 173.209,584.25 173.242,584.236 173.273,584.222 C 173.299,584.21 173.323,584.197 173.347,584.187 C 173.366,584.177 173.385,584.167 173.401,584.159 C 173.431,584.144 173.456,584.13 173.476,584.119 L 173.532,584.088 L 173.532,584.62 C 173.532,584.62 173.498,584.633 173.442,584.655 C 173.416,584.664 173.386,584.675 173.351,584.687 C 173.333,584.694 173.313,584.701 173.292,584.708 C 173.275,584.713 173.258,584.72 173.24,584.725 C 173.22,584.732 173.2,584.74 173.178,584.746 C 173.162,584.75 173.146,584.756 173.129,584.76 L 173.115,584.765 C 173.099,584.769 173.083,584.773 173.068,584.777 C 173.048,584.782 173.028,584.788 173.009,584.793 C 172.996,584.795 172.983,584.798 172.97,584.801 C 172.949,584.806 172.928,584.811 172.906,584.816 C 172.884,584.82 172.863,584.825 172.84,584.828"
         style="fill:#000000;fill-rule:evenodd;stroke:none" />
      <g
         id="g4150"
         transform="translate(166.9519,583.1885)">
        <path
           id="path4152"
           d="M 0,0 L 0,-0.778 L 0.505,-0.778 C 0.505,-0.778 0.516,-0.777 0.531,-0.777 C 0.548,-0.777 0.573,-0.775 0.603,-0.773 C 0.656,-0.768 0.729,-0.758 0.8,-0.734 C 0.863,-0.713 0.924,-0.681 0.972,-0.634 C 0.99,-0.615 1.005,-0.596 1.018,-0.577 C 1.057,-0.514 1.067,-0.451 1.069,-0.416 C 1.07,-0.399 1.07,-0.391 1.07,-0.391 C 1.07,-0.391 1.07,-0.383 1.07,-0.372 C 1.07,-0.357 1.068,-0.328 1.06,-0.296 C 1.05,-0.259 1.033,-0.217 1.001,-0.177 C 0.994,-0.17 0.988,-0.163 0.981,-0.156 C 0.967,-0.142 0.952,-0.128 0.936,-0.116 C 0.908,-0.096 0.876,-0.078 0.842,-0.064 C 0.796,-0.043 0.746,-0.029 0.689,-0.018 C 0.662,-0.013 0.63,-0.008 0.6,-0.006 C 0.58,-0.003 0.562,-0.003 0.542,-0.001 C 0.524,0 0.506,0 0.488,0 L 0,0 z "
           style="fill:#000000;fill-rule:evenodd;stroke:none" />
      </g>
      <g
         id="g4154"
         transform="translate(166.9519,584.3734)">
        <path
           id="path4156"
           d="M 0,0 L 0,-0.738 L 0.244,-0.738 C 0.244,-0.738 0.261,-0.738 0.282,-0.738 C 0.3,-0.737 0.319,-0.737 0.337,-0.735 C 0.388,-0.731 0.458,-0.724 0.527,-0.705 C 0.541,-0.701 0.555,-0.697 0.567,-0.692 C 0.622,-0.672 0.674,-0.645 0.716,-0.604 C 0.748,-0.573 0.769,-0.537 0.783,-0.502 C 0.801,-0.46 0.807,-0.42 0.81,-0.391 C 0.811,-0.365 0.811,-0.35 0.811,-0.35 C 0.811,-0.35 0.811,-0.338 0.811,-0.318 C 0.81,-0.286 0.803,-0.234 0.777,-0.184 C 0.765,-0.159 0.748,-0.136 0.725,-0.114 C 0.698,-0.087 0.665,-0.065 0.629,-0.05 C 0.56,-0.019 0.48,-0.007 0.415,-0.003 C 0.385,-0.001 0.359,0 0.337,0 L 0,0 z "
           style="fill:#000000;fill-rule:evenodd;stroke:none" />
      </g>
      <path
         id="path4158"
         d="M 165.336,585.38 L 169.547,585.38 L 169.547,581.417 L 165.336,581.417 L 165.336,585.38 z M 166.44,584.825 L 166.44,581.97 L 167.515,581.97 C 167.515,581.97 168.039,581.956 168.328,582.245 C 168.563,582.481 168.547,582.753 168.547,582.753 C 168.547,582.753 168.563,583.037 168.345,583.256 C 168.159,583.441 167.922,583.491 167.922,583.491 C 167.922,583.491 168.029,583.541 168.112,583.623 C 168.15,583.662 168.287,583.786 168.287,584.086 C 168.287,584.389 168.086,584.563 168.086,584.563 C 168.086,584.563 167.865,584.825 167.367,584.825 L 166.44,584.825 z "
         style="fill:#000000;fill-rule:evenodd;stroke:none" />
      <g
         id="g4160"
         transform="translate(162.0999,583.1885)">
        <path
           id="path4162"
           d="M 0,0 L 0,-0.778 L 0.506,-0.778 C 0.506,-0.778 0.516,-0.777 0.532,-0.777 C 0.549,-0.777 0.574,-0.775 0.603,-0.773 C 0.658,-0.768 0.73,-0.758 0.8,-0.734 C 0.864,-0.713 0.925,-0.681 0.973,-0.634 C 0.991,-0.615 1.006,-0.596 1.018,-0.577 C 1.057,-0.514 1.067,-0.451 1.069,-0.416 C 1.071,-0.399 1.071,-0.391 1.071,-0.391 L 1.071,-0.372 C 1.069,-0.357 1.068,-0.328 1.06,-0.296 C 1.051,-0.259 1.033,-0.217 1.001,-0.177 C 0.996,-0.17 0.989,-0.163 0.982,-0.156 C 0.967,-0.142 0.953,-0.128 0.937,-0.116 C 0.908,-0.096 0.877,-0.078 0.843,-0.064 C 0.797,-0.043 0.746,-0.029 0.69,-0.018 C 0.662,-0.013 0.632,-0.008 0.601,-0.006 C 0.582,-0.003 0.562,-0.003 0.543,-0.001 C 0.525,0 0.507,0 0.489,0 L 0,0 z "
           style="fill:#000000;fill-rule:evenodd;stroke:none" />
      </g>
      <g
         id="g4164"
         transform="translate(162.0999,584.3734)">
        <path
           id="path4166"
           d="M 0,0 L 0,-0.738 L 0.245,-0.738 C 0.245,-0.738 0.262,-0.738 0.283,-0.738 C 0.3,-0.737 0.32,-0.737 0.338,-0.735 C 0.388,-0.731 0.459,-0.724 0.528,-0.705 C 0.542,-0.701 0.554,-0.697 0.569,-0.692 C 0.623,-0.672 0.675,-0.645 0.716,-0.604 C 0.748,-0.573 0.769,-0.537 0.784,-0.502 C 0.801,-0.46 0.807,-0.42 0.81,-0.391 C 0.812,-0.365 0.812,-0.35 0.812,-0.35 L 0.812,-0.318 C 0.809,-0.286 0.803,-0.234 0.778,-0.184 C 0.766,-0.159 0.748,-0.136 0.727,-0.114 C 0.698,-0.087 0.665,-0.065 0.629,-0.05 C 0.56,-0.019 0.481,-0.007 0.414,-0.003 C 0.386,-0.001 0.359,0 0.338,0 L 0,0 z "
           style="fill:#000000;fill-rule:evenodd;stroke:none" />
      </g>
      <path
         id="path4168"
         d="M 160.484,585.38 L 164.695,585.38 L 164.695,581.417 L 160.484,581.417 L 160.484,585.38 z M 161.589,584.825 L 161.589,581.97 L 162.663,581.97 C 162.663,581.97 163.187,581.956 163.476,582.245 C 163.711,582.481 163.695,582.753 163.695,582.753 C 163.695,582.753 163.711,583.037 163.493,583.256 C 163.307,583.441 163.071,583.491 163.071,583.491 C 163.071,583.491 163.178,583.541 163.26,583.623 C 163.299,583.662 163.436,583.786 163.436,584.086 C 163.436,584.389 163.234,584.563 163.234,584.563 C 163.234,584.563 163.014,584.825 162.516,584.825 L 161.589,584.825 z "
         style="fill:#000000;fill-rule:evenodd;stroke:none" />
      <g
         id="g4170"
         transform="translate(160.954,580.0317)">
        <path
           id="path4172"
           d="M 0,0 L 0.304,0 C 0.759,0 0.942,-0.187 0.946,-0.495 C 0.951,-0.769 0.807,-1.028 0.304,-1.028 L 0,-1.028 L 0,0 z M -0.47,0.404 L -0.47,-2.872 L 0,-2.872 L 0,-1.45 L 0.197,-1.45 C 0.438,-1.45 0.634,-1.527 1.067,-2.2 L 1.499,-2.872 L 2.061,-2.872 C 1.835,-2.561 1.754,-2.45 1.613,-2.223 C 1.364,-1.816 1.182,-1.513 0.884,-1.317 C 1.234,-1.176 1.432,-0.893 1.432,-0.514 C 1.432,0.053 1.019,0.404 0.356,0.404 L -0.47,0.404 z "
           style="fill:#000000;fill-rule:evenodd;stroke:none" />
      </g>
      <g
         id="g4174"
         transform="translate(164.5538,579.7336)">
        <path
           id="path4176"
           d="M 0,0 L 0.529,-1.186 L -0.49,-1.186 L 0,0 z M 0.172,0.721 L -0.159,0.721 L -1.566,-2.573 L -1.086,-2.573 L -0.672,-1.609 L 0.72,-1.609 L 1.157,-2.573 L 1.637,-2.573 L 0.172,0.721 z "
           style="fill:#000000;fill-rule:evenodd;stroke:none" />
      </g>
      <g
         id="g4178"
         transform="translate(167.053,580.0126)">
        <path
           id="path4180"
           d="M 0,0 L 0.724,0 C 1.642,0 2.06,-0.557 2.06,-1.215 C 2.06,-1.619 1.815,-2.43 0.749,-2.43 L 0,-2.43 L 0,0 z M -0.471,-2.852 L 0.806,-2.852 C 1.887,-2.852 2.544,-2.056 2.544,-1.215 C 2.544,-0.442 2.012,0.423 0.802,0.423 L -0.471,0.423 L -0.471,-2.852 z "
           style="fill:#000000;fill-rule:evenodd;stroke:none" />
      </g>
      <path
         id="path4182"
         d="M 170.14,580.436 L 170.61,580.436 L 170.61,577.16 L 170.14,577.16 L 170.14,580.436 z "
         style="fill:#000000;fill-rule:evenodd;stroke:none" />
      <g
         id="g4184"
         transform="translate(171.6385,578.7972)">
        <path
           id="path4186"
           d="M 0,0 C 0,0.721 0.543,1.248 1.273,1.248 C 2.008,1.248 2.551,0.721 2.551,0 C 2.551,-0.715 2.008,-1.249 1.273,-1.249 C 0.543,-1.249 0,-0.715 0,0 M -0.485,0 C -0.485,-0.889 0.193,-1.68 1.263,-1.68 C 2.373,-1.68 3.036,-0.883 3.036,0 C 3.036,0.912 2.354,1.681 1.273,1.681 C 0.211,1.681 -0.485,0.908 -0.485,0"
           style="fill:#000000;fill-rule:evenodd;stroke:none" />
      </g>
      <g
         id="g4188"
         transform="translate(192.9109,580.5277)">
        <path
           id="path4190"
           d="M 0,0 C -0.889,0 -0.891,1.359 0,1.359 C 0.872,1.359 0.87,0 0,0 M 0,-2.302 C -0.889,-2.302 -0.891,-0.942 0,-0.942 C 0.872,-0.942 0.87,-2.302 0,-2.302 M -1.115,-11.251 C -3.023,-12.723 -6.71,-13.01 -8.685,-11.572 C -9.513,-10.969 -10.219,-10.256 -10.194,-9.277 C -10.123,-6.671 -5.762,-7.778 -6.81,-9.736 C -7.24,-10.423 -8.279,-10.421 -8.955,-10.165 C -7.785,-11.866 -4.618,-11.824 -3.281,-10.334 C -2.61,-9.586 -2.531,-8.592 -2.614,-7.614 C -2.714,-6.44 -3.28,-5.702 -3.993,-4.844 C -3.553,-4.529 -3.293,-4.354 -2.872,-4.013 C 0.214,-4.76 1.918,-8.913 -1.115,-11.251 M -7.296,2.038 C -5.246,3.199 -1.396,2.434 -1.258,-0.37 C -1.137,-2.839 -4.187,-4.505 -6.022,-5.511 C -6.072,-5.461 -6.426,-5.11 -6.501,-5.036 C -4.855,-3.792 -3.015,-1.571 -3.828,0.635 C -4.389,2.154 -6.908,2.123 -7.568,0.704 C -6.938,0.923 -6.04,0.956 -5.556,0.41 C -5.049,-0.163 -5.348,-1.057 -5.98,-1.383 C -6.967,-1.891 -8.702,-1.457 -8.783,-0.172 C -8.809,0.797 -8.133,1.621 -7.296,2.038 M -5.037,5.492 C -10.77,5.492 -15.418,0.842 -15.418,-4.894 C -15.418,-10.631 -10.77,-15.281 -5.037,-15.281 C 0.697,-15.281 5.344,-10.631 5.344,-4.894 C 5.344,0.842 0.697,5.492 -5.037,5.492"
           style="fill:#e82c2e;fill-rule:nonzero;stroke:none" />
      </g>
    </g>
  </g>
</svg>
